icons/car.svg

<svg xmlns="http://www.w3.org/2000/svg" width="24" height="24" viewBox="0 0 24 24">
  <path d="M21,19.5 C21,20.3284271 20.3284271,21 19.5,21 C18.6715729,21 18,20.3284271 18,19.5 L17.9999797,19 L5.99997972,19 L6,19.5 C6,20.3284271 5.32842712,21 4.5,21 C3.67157288,21 3,20.3284271 3,19.5 L3,11 C2.99931563,10.8965566 3.01594736,10.7898803 3.0513167,10.6837722 L3.0513167,10.6837722 L4.59546855,6.0513167 C5.00381069,4.82629028 6.15022722,4 7.44151844,4 L7.44151844,4 L16.5584816,4 C17.8497728,4 18.9961893,4.82629028 19.4045315,6.0513167 L19.4045315,6.0513167 L20.9486833,10.6837722 C20.9840526,10.7898803 21.0006844,10.8965566 21.0007663,11.0007659 L21,11 L21,19.5 Z M7.5,13 C6.67157288,13 6,13.6715729 6,14.5 C6,15.3284271 6.67157288,16 7.5,16 C8.32842712,16 9,15.3284271 9,14.5 C9,13.6715729 8.32842712,13 7.5,13 Z M16.5,13 C15.6715729,13 15,13.6715729 15,14.5 C15,15.3284271 15.6715729,16 16.5,16 C17.3284271,16 18,15.3284271 18,14.5 C18,13.6715729 17.3284271,13 16.5,13 Z M16.5584816,6 L7.44151844,6 C7.01108803,6 6.62894919,6.27543009 6.49283514,6.68377223 L6.49283514,6.68377223 L5.387,10 L18.612,10 L17.5071649,6.68377223 C17.3834248,6.31255211 17.0563585,6.05117665 16.6745258,6.00672177 L16.6745258,6.00672177 L16.5584816,6 Z"/>
</svg>

<svg xmlns="http://www.w3.org/2000/svg" viewBox="0 0 24 24">
  <path d="M21 19.5a1.5 1.5 0 0 1-3 0V19H6v.5a1.5 1.5 0 0 1-3 0V11c0-.1.02-.21.05-.32L4.6 6.05A3 3 0 0 1 7.44 4h9.12a3 3 0 0 1 2.84 2.05l1.55 4.63A1 1 0 0 1 21 11v8.5zM7.5 13a1.5 1.5 0 1 0 0 3 1.5 1.5 0 0 0 0-3zm9 0a1.5 1.5 0 1 0 0 3 1.5 1.5 0 0 0 0-3zm.06-7H7.44a1 1 0 0 0-.95.68L5.4 10h13.2l-1.1-3.32a1 1 0 0 0-.84-.67l-.1-.01z"/>
</svg>
